humanity-icon-theme/Humanity/apps/16/lpi-bug.svg

<?xml version="1.0" encoding="UTF-8" standalone="no"?>
<!-- Created with Inkscape (http://www.inkscape.org/) -->

<svg
   xmlns:svg="http://www.w3.org/2000/svg"
   xmlns="http://www.w3.org/2000/svg"
   xmlns:xlink="http://www.w3.org/1999/xlink"
   version="1.0"
   width="16"
   height="16"
   id="svg3320">
  <defs
     id="defs3322">
    <linearGradient
       id="linearGradient3699">
      <stop
         id="stop3701"
         style="stop-color:#f8b17e;stop-opacity:1"
         offset="0" />
      <stop
         id="stop3703"
         style="stop-color:#e35d4f;stop-opacity:1"
         offset="0.26238" />
      <stop
         id="stop3705"
         style="stop-color:#c6262e;stop-opacity:1"
         offset="0.74740618" />
      <stop
         id="stop3707"
         style="stop-color:#690b54;stop-opacity:1"
         offset="1" />
    </linearGradient>
    <radialGradient
       cx="-1.7499615"
       cy="-9.2804718"
       r="18.656607"
       fx="-1.7499615"
       fy="-9.2804718"
       id="radialGradient2848"
       xlink:href="#linearGradient3699"
       gradientUnits="userSpaceOnUse"
       gradientTransform="matrix(-0.00343383,0.85759817,-0.80521375,-0.00322408,-2.4787726,3.470843)" />
    <linearGradient
       id="linearGradient2490">
      <stop
         id="stop2492"
         style="stop-color:#791235;stop-opacity:1"
         offset="0" />
      <stop
         id="stop2494"
         style="stop-color:#dd3b27;stop-opacity:1"
         offset="1" />
    </linearGradient>
    <linearGradient
       id="linearGradient4873">
      <stop
         id="stop4875"
         style="stop-color:#ffffff;stop-opacity:1"
         offset="0" />
      <stop
         id="stop4877"
         style="stop-color:#ffffff;stop-opacity:0"
         offset="1" />
    </linearGradient>
    <linearGradient
       x1="3.8195488"
       y1="18.827068"
       x2="4"
       y2="0"
       id="linearGradient3697"
       xlink:href="#linearGradient2490"
       gradientUnits="userSpaceOnUse" />
    <linearGradient
       x1="7.1931496"
       y1="1.8041536"
       x2="7.1931496"
       y2="23.643658"
       id="linearGradient3715"
       xlink:href="#linearGradient4873"
       gradientUnits="userSpaceOnUse" />
  </defs>
  <g
     id="layer1">
    <path
       d="M 14.518855,14.154319 9.5359355,12.423018 5.4693972,15.48067 4.5204956,11.478572 0.57733003,12.481465 3.5049382,8.5018995 0.80506946,4.5079228 4.5675542,4.5392438 6.034122,0.49023572 9.374496,2.7276399 14.388377,0.67238371 12.405309,5.5985426 15.50767,8.1184833 12.419671,9.5817702 14.518855,14.154319 z"
       id="path2160"
       style="fill:url(#radialGradient2848);fill-opacity:1;stroke:url(#linearGradient3697);stroke-width:0.98500001;stroke-linecap:round;stroke-linejoin:round;stroke-miterlimit:4;stroke-opacity:1;stroke-dasharray:none;stroke-dashoffset:0" />
    <path
       d="m 7.0001383,3.999643 1.9999684,0 -0.5597847,4.0000019 -0.9687865,0 L 7.0001383,3.999643 z"
       id="rect3153"
       style="fill:#ffffff;fill-opacity:1;stroke:none" />
    <path
       d="m 12.96875,13.546875 a 1.421875,1.421875 0 1 1 -2.84375,0 1.421875,1.421875 0 1 1 2.84375,0 z"
       transform="matrix(0.70328565,0,0,0.70329707,-0.12062927,0.47216821)"
       id="path3157"
       style="fill:#ffffff;fill-opacity:1;stroke:none" />
    <path
       d="M 9.21875,3.09375 7.84375,7.0625 A 1.2893515,1.2893515 0 0 1 6.625,7.90625 L 4,7.875 6.25,11.3125 a 1.2893515,1.2893515 0 0 1 0,1.46875 L 4.4375,15.3125 6.25,14.84375 a 1.2893515,1.2893515 0 0 1 1.5625,0.96875 l 0.8125,3.5 3.8125,-2.9375 a 1.2893515,1.2893515 0 0 1 1.21875,-0.1875 L 17.4375,17.53125 15.875,14.0625 A 1.2893515,1.2893515 0 0 1 16.5,12.375 L 18.84375,11.25 16.25,9.09375 A 1.2893515,1.2893515 0 0 1 15.875,7.625 l 1.53125,-3.90625 -3.875,1.625 a 1.2893515,1.2893515 0 0 1 -1.21875,-0.125 l -3.09375,-2.125 z"
       transform="matrix(0.75085062,0,0,0.73261737,-0.40098082,-0.32175428)"
       id="path3200"
       style="opacity:0.4;fill:none;stroke:url(#linearGradient3715);stroke-width:1.32761133;stroke-linecap:round;stroke-linejoin:miter;stroke-miterlimit:4;stroke-opacity:1;stroke-dasharray:none;stroke-dashoffset:0" />
  </g>
</svg>

<?xml version="1.0" encoding="UTF-8" standalone="no"?>
<!-- Created with Inkscape (http://www.inkscape.org/) -->
<svg id="svg3320" xmlns="http://www.w3.org/2000/svg" height="16" width="16" version="1.0" xmlns:xlink="http://www.w3.org/1999/xlink">
 <defs id="defs3322">
  <radialGradient id="radialGradient2848" gradientUnits="userSpaceOnUse" cy="-9.2805" cx="-1.75" gradientTransform="matrix(-.0034338 .85760 -.80521 -.0032241 -2.4788 3.4708)" r="18.657">
   <stop id="stop3701" style="stop-color:#f8b17e" offset="0"/>
   <stop id="stop3703" style="stop-color:#e35d4f" offset=".26238"/>
   <stop id="stop3705" style="stop-color:#c6262e" offset=".74741"/>
   <stop id="stop3707" style="stop-color:#690b54" offset="1"/>
  </radialGradient>
  <linearGradient id="linearGradient3697" gradientUnits="userSpaceOnUse" x2="4" y1="18.827" x1="3.8195">
   <stop id="stop2492" style="stop-color:#791235" offset="0"/>
   <stop id="stop2494" style="stop-color:#dd3b27" offset="1"/>
  </linearGradient>
  <linearGradient id="linearGradient3715" y2="23.644" gradientUnits="userSpaceOnUse" x2="7.1931" y1="1.8042" x1="7.1931">
   <stop id="stop4875" style="stop-color:#fff" offset="0"/>
   <stop id="stop4877" style="stop-color:#fff;stop-opacity:0" offset="1"/>
  </linearGradient>
 </defs>
 <g id="layer1">
  <path id="path2160" style="stroke-linejoin:round;stroke:url(#linearGradient3697);stroke-linecap:round;stroke-width:0.985;fill:url(#radialGradient2848)" d="m14.519 14.154-4.9831-1.731-4.0665 3.058-0.9489-4.002-3.9432 1.002 2.9276-3.9791-2.6998-3.994 3.7625 0.0313 1.4665-4.049 3.3404 2.2374 5.0135-2.0552-1.983 4.9261 3.103 2.52-3.088 1.4633 2.099 4.5722z"/>
  <path id="rect3153" style="fill:#fff" d="m7.0001 3.9996h2l-0.55978 4h-0.96879l-0.4714-4z"/>
  <path id="path3157" style="fill:#fff" d="m12.969 13.547a1.4219 1.4219 0 1 1 -2.8438 0 1.4219 1.4219 0 1 1 2.8438 0z" transform="matrix(.70329 0 0 .70330 -.12063 .47217)"/>
  <path id="path3200" style="opacity:.4;stroke:url(#linearGradient3715);stroke-linecap:round;stroke-width:1.3276;fill:none" d="m9.2188 3.0938-1.375 3.9687a1.2894 1.2894 0 0 1 -1.2188 0.8437l-2.625-0.0312 2.25 3.437a1.2894 1.2894 0 0 1 0 1.4688l-1.8125 2.531 1.8125-0.468a1.2894 1.2894 0 0 1 1.5625 0.96875l0.8125 3.5 3.8125-2.9375a1.2894 1.2894 0 0 1 1.2188 -0.1875l3.781 1.343-1.563-3.469a1.2894 1.2894 0 0 1 0.625 -1.687l2.344-1.125-2.594-2.1562a1.2894 1.2894 0 0 1 -0.375 -1.4688l1.5312-3.9062-3.875 1.625a1.2894 1.2894 0 0 1 -1.2188 -0.125l-3.0938-2.125z" transform="matrix(.75085 0 0 .73262 -.40098 -.32175)"/>
 </g>
</svg>
